X:798
T:Well-Hall
%%MIDI gchord fcHcfc
%%MIDI beat 100 95 80
C:Henry Playford, 1701
S:Colin Hume's website,  colinhume.com  - chords can also be printed below the stave.
Q:1/2=110
M:3/2
L:1/4
K:F
P:A
|: "F"Ac dc fA | "C/E"G2 E2 B2 | "Dm"Ac dc fg | "C7"a4 g2 |\
"F"ag fc df | "Dm"d2 F2 A2 | "Gm"GA Bc A2 | "C"B3 c B2 :|
P:B
|: "Bb"BF GF GB | "Gm"D3 B D2 | "Am"EG AG Ac | "C7"E3 c B2 |\
"F"Ac dc fc | "Bb"d3 e/f/ gd | "C7"ec Aa fa | "F"f3 g f2 :|

